symbolia-neutral/scalable/actions/view-time-schedule-baselined.svg

<?xml version="1.0" encoding="UTF-8" standalone="no"?>
<svg
   xmlns:dc="http://purl.org/dc/elements/1.1/"
   xmlns:cc="http://creativecommons.org/ns#"
   xmlns:rdf="http://www.w3.org/1999/02/22-rdf-syntax-ns#"
   xmlns:svg="http://www.w3.org/2000/svg"
   xmlns="http://www.w3.org/2000/svg"
   xmlns:sodipodi="http://sodipodi.sourceforge.net/DTD/sodipodi-0.dtd"
   xmlns:inkscape="http://www.inkscape.org/namespaces/inkscape"
   version="1.1"
   id="mdi-calendar-clock"
   width="24"
   height="24"
   viewBox="0 0 24 24"
   sodipodi:docname="view-time-schedule-baselined.svg"
   inkscape:version="1.0.2 (e86c870879, 2021-01-15)">
  <metadata
     id="metadata9">
    <rdf:RDF>
      <cc:Work
         rdf:about="">
        <dc:format>image/svg+xml</dc:format>
        <dc:type
           rdf:resource="http://purl.org/dc/dcmitype/StillImage" />
      </cc:Work>
    </rdf:RDF>
  </metadata>
  <defs
     id="defs7" />
  <sodipodi:namedview
     pagecolor="#ffffff"
     bordercolor="#666666"
     borderopacity="1"
     objecttolerance="10"
     gridtolerance="10"
     guidetolerance="10"
     inkscape:pageopacity="0"
     inkscape:pageshadow="2"
     inkscape:window-width="1844"
     inkscape:window-height="1031"
     id="namedview5"
     showgrid="false"
     inkscape:zoom="21"
     inkscape:cx="2.3119545"
     inkscape:cy="11.264207"
     inkscape:window-x="8"
     inkscape:window-y="8"
     inkscape:window-maximized="0"
     inkscape:current-layer="mdi-calendar-clock" />
  <path fill="#afafaf"
     d="m 15,13 h 1.5 v 2.82 l 2.44,1.41 -0.75,1.3 L 15,16.69 V 13 M 19,8 H 5 V 19 H 9.67 C 9.24,18.09 9,17.07 9,16 c 0,-3.865993 3.134007,-7 7,-7 1.07,0 2.09,0.24 3,0.67 V 8 M 5,21 C 3.89,21 3,20.1 3,19 V 5 C 3,3.89 3.89,3 5,3 h 1 v 0 h 2 v 0 h 8 v 0 h 2 v 0 h 1 c 1.104569,0 2,0.8954305 2,2 v 6.1 c 1.24,1.26 2,2.99 2,4.9 0,3.865993 -3.134007,7 -7,7 -1.91,0 -3.64,-0.76 -4.9,-2 H 5 m 11,-9.85 c -2.678581,0 -4.85,2.171419 -4.85,4.85 0,2.68 2.17,4.85 4.85,4.85 2.678581,0 4.85,-2.171419 4.85,-4.85 0,-2.68 -2.17,-4.85 -4.85,-4.85 z"
     id="path2"
     sodipodi:nodetypes="cccccccccccsscccsssccccccccsscssccsssss" />
  <path fill="#afafaf"
     id="path2-3"
     d="M 7 1 C 6.45 1 6 1.45 6 2 L 6 3 L 5 3 C 3.89 3 3.0097656 3.9 3.0097656 5 L 3 19 C 3 20.1 3.89 21 5 21 L 6.296875 21 L 6.296875 19 L 6 19 C 5.45 19 5 18.55 5 18 L 5 8 L 19 8 L 19 8.7773438 L 21 8.7773438 L 21 5 C 21 3.9 20.1 3 19 3 L 18 3 L 18 2 C 18 1.45 17.55 1 17 1 C 16.45 1 16 1.45 16 2 L 16 3 L 8 3 L 8 2 C 8 1.45 7.55 1 7 1 z " />
</svg>

<?xml version="1.0" encoding="UTF-8"?><!DOCTYPE svg PUBLIC "-//W3C//DTD SVG 1.1//EN" "http://www.w3.org/Graphics/SVG/1.1/DTD/svg11.dtd"><svg xmlns="http://www.w3.org/2000/svg" xmlns:xlink="http://www.w3.org/1999/xlink" version="1.1" id="mdi-calendar-clock" width="24" height="24" viewBox="0 0 24 24"><path fill="#afafaf" d="M15,13H16.5V15.82L18.94,17.23L18.19,18.53L15,16.69V13M19,8H5V19H9.67C9.24,18.09 9,17.07 9,16A7,7 0 0,1 16,9C17.07,9 18.09,9.24 19,9.67V8M5,21C3.89,21 3,20.1 3,19V5C3,3.89 3.89,3 5,3H6V1H8V3H16V1H18V3H19A2,2 0 0,1 21,5V11.1C22.24,12.36 23,14.09 23,16A7,7 0 0,1 16,23C14.09,23 12.36,22.24 11.1,21H5M16,11.15A4.85,4.85 0 0,0 11.15,16C11.15,18.68 13.32,20.85 16,20.85A4.85,4.85 0 0,0 20.85,16C20.85,13.32 18.68,11.15 16,11.15Z" /></svg>
